src/assets/images/logos/logo-04.svg

<svg height="40" viewBox="0 0 175 40" width="175" xmlns="http://www.w3.org/2000/svg" xmlns:xlink="http://www.w3.org/1999/xlink"><defs><path id="a" d="m58.705 17.14c-.2200011-.2800014-.5074982-.5024992-.8625-.6675s-.6974983-.2475-1.0275-.2475c-.1700008 0-.3424991.0149999-.5175.045-.1750009.0300002-.3324993.0874996-.4725.1725s-.2574995.1949993-.3525.33-.1425.3074989-.1425.5175c0 .1800009.0374996.3299994.1125.45s.1849993.2249996.33.315c.1450007.0900005.317499.1724996.5175.2475s.4249988.1524996.675.2325c.3600018.1200006.7349981.2524993 1.125.3975.390002.1450007.7449984.3374988 1.065.5775s.584999.5374982.795.8925c.2100011.3550018.315.7974974.315 1.3275 0 .610003-.1124989 1.1374978-.3375 1.5825s-.5274981.8124986-.9075 1.1025c-.3800019.2900015-.8149975.5049993-1.305.645-.4900024.1400007-.9949974.21-1.515.21-.7600038 0-1.4949964-.1324987-2.205-.3975-.7100035-.2650013-1.2999976-.6424975-1.77-1.1325l1.68-1.71c.2600013.3200016.6024979.5874989 1.0275.8025s.8474979.3225 1.2675.3225c.190001 0 .3749991-.0199998.555-.06s.3374993-.1049995.4725-.195c.1350007-.0900004.2424996-.2099992.3225-.36s.12-.3299989.12-.54c0-.200001-.0499995-.3699993-.15-.51s-.2424991-.2674994-.4275-.3825-.4149986-.2199995-.69-.315-.5874982-.1974994-.9375-.3075c-.3400017-.1100005-.6724984-.2399992-.9975-.39-.3250016-.1500007-.6149987-.3424988-.87-.5775s-.4599992-.5199983-.615-.855-.2325-.7424976-.2325-1.2225c0-.590003.1199988-1.0949979.36-1.515s.5549981-.7649987.945-1.035c.390002-.2700013.8299976-.4674994 1.32-.5925.4900025-.1250006.9849975-.1875 1.485-.1875.600003 0 1.2124969.1099989 1.8375.33s1.1724977.5449978 1.6425.975zm14.31.51c0 .6200031-.1149988 1.1424979-.345 1.5675-.2300011.4250021-.539998.7674987-.93 1.0275-.3900019.2600013-.8399974.4499994-1.35.57-.5100025.1200006-1.0399972.18-1.59.18h-1.275v4.005h-2.565v-10.62h3.9c.5800029 0 1.1224975.0574994 1.6275.1725s.9449981.2999987 1.32.555.6699989.5899979.885 1.005.3225.9274969.3225 1.5375zm-2.565.015c0-.2500013-.0499995-.4549992-.15-.615s-.2349992-.2849995-.405-.375c-.1700009-.0900005-.3624989-.1499999-.5775-.18-.2150011-.0300002-.4374989-.045-.6675-.045h-1.125v2.505h1.08c.2400012 0 .4699989-.0199998.69-.06s.4174991-.1099995.5925-.21.3124995-.2324992.4125-.3975.15-.3724988.15-.6225zm13.41 7.335-.825-2.085h-4.11l-.78 2.085h-2.79l4.455-10.62h2.49l4.41 10.62zm-2.85-7.785-1.35 3.645h2.67zm18.66 6.315c-.4700023.5400027-1.0499965.9674984-1.74 1.2825-.6900034.3150016-1.4849955.4725-2.385.4725-.8200041 0-1.5774965-.1349987-2.2725-.405s-1.2974974-.6524975-1.8075-1.1475c-.5100025-.4950025-.9099985-1.0874966-1.2-1.7775-.2900014-.6900035-.435-1.4499959-.435-2.28 0-.8500043.1474985-1.6199965.4425-2.31.2950015-.6900034.7024974-1.2774976 1.2225-1.7625s1.1299965-.8574987 1.83-1.1175 1.454996-.39 2.265-.39c.7500038 0 1.4874964.1324987 2.2125.3975s1.3124978.6524975 1.7625 1.1625l-1.74 1.74c-.2400012-.3300017-.554998-.5749992-.945-.735-.3900019-.1600008-.7899979-.24-1.2-.24-.4500022 0-.8624981.0824992-1.2375.2475s-.6974986.3924986-.9675.6825c-.2700013.2900014-.4799992.632498-.63 1.0275-.1500007.395002-.225.8274977-.225 1.2975 0 .4800024.0749993.919998.225 1.32.1500008.400002.3574987.7424986.6225 1.0275s.5824982.5074992.9525.6675c.3700019.1600008.7749978.24 1.215.24.5100026 0 .9549981-.099999 1.335-.3s.6849989-.4599984.915-.78zm4.095 1.47v-10.62h7.14v2.175h-4.665v1.995h4.41v2.055h-4.41v2.205h4.935v2.19zm16.65-8.43v8.43h-2.565v-8.43h-3v-2.19h8.565v2.19zm7.17 8.43v-10.62h2.58v10.62zm17.4 0 .06-7.515h-.045l-2.76 7.515h-1.8l-2.685-7.515h-.045l.06 7.515h-2.415v-10.62h3.645l2.415 6.81h.06l2.31-6.81h3.705v10.62zm7.695 0v-10.62h7.14v2.175h-4.665v1.995h4.41v2.055h-4.41v2.205h4.935v2.19zm-144.68-5 24-12v12l-24 12z"/><mask id="b" fill="#fff"><use fill="none" xlink:href="#a"/></mask></defs><g fill="none" fill-rule="evenodd"><path d="m0 0h175v40h-175z"/><g fill="#fff"><use xlink:href="#a"/><g mask="url(#b)"><path d="m0 0h175v40h-175z"/></g></g></g></svg>

<?xml version="1.0" encoding="UTF-8"?>
<svg width="175px" height="40px" viewBox="0 0 175 40" version="1.1" xmlns="http://www.w3.org/2000/svg" xmlns:xlink="http://www.w3.org/1999/xlink">
    <!-- Generator: Sketch 49 (51002) - http://www.bohemiancoding.com/sketch -->
    <title>Brand/Logo/logo-04</title>
    <desc>Created with Sketch.</desc>
    <defs>
        <path d="M58.705,17.14 C58.4849989,16.8599986 58.1975018,16.6375008 57.8425,16.4725 C57.4874982,16.3074992 57.1450017,16.225 56.815,16.225 C56.6449992,16.225 56.4725009,16.2399999 56.2975,16.27 C56.1224991,16.3000002 55.9650007,16.3574996 55.825,16.4425 C55.6849993,16.5275004 55.5675005,16.6374993 55.4725,16.7725 C55.3774995,16.9075007 55.33,17.0799989 55.33,17.29 C55.33,17.4700009 55.3674996,17.6199994 55.4425,17.74 C55.5175004,17.8600006 55.6274993,17.9649996 55.7725,18.055 C55.9175007,18.1450005 56.089999,18.2274996 56.29,18.3025 C56.490001,18.3775004 56.7149988,18.4549996 56.965,18.535 C57.3250018,18.6550006 57.6999981,18.7874993 58.09,18.9325 C58.480002,19.0775007 58.8349984,19.2699988 59.155,19.51 C59.4750016,19.7500012 59.739999,20.0474982 59.95,20.4025 C60.1600011,20.7575018 60.265,21.1999974 60.265,21.73 C60.265,22.340003 60.1525011,22.8674978 59.9275,23.3125 C59.7024989,23.7575022 59.4000019,24.1249986 59.02,24.415 C58.6399981,24.7050015 58.2050025,24.9199993 57.715,25.06 C57.2249976,25.2000007 56.7200026,25.27 56.2,25.27 C55.4399962,25.27 54.7050036,25.1375013 53.995,24.8725 C53.2849965,24.6074987 52.6950024,24.2300025 52.225,23.74 L53.905,22.03 C54.1650013,22.3500016 54.5074979,22.6174989 54.9325,22.8325 C55.3575021,23.0475011 55.7799979,23.155 56.2,23.155 C56.390001,23.155 56.5749991,23.1350002 56.755,23.095 C56.9350009,23.0549998 57.0924993,22.9900005 57.2275,22.9 C57.3625007,22.8099996 57.4699996,22.6900008 57.55,22.54 C57.6300004,22.3899992 57.67,22.2100011 57.67,22 C57.67,21.799999 57.6200005,21.6300007 57.52,21.49 C57.4199995,21.3499993 57.2775009,21.2225006 57.0925,21.1075 C56.9074991,20.9924994 56.6775014,20.8875005 56.4025,20.7925 C56.1274986,20.6974995 55.8150018,20.5950006 55.465,20.485 C55.1249983,20.3749995 54.7925016,20.2450008 54.4675,20.095 C54.1424984,19.9449993 53.8525013,19.7525012 53.5975,19.5175 C53.3424987,19.2824988 53.1375008,18.9975017 52.9825,18.6625 C52.8274992,18.3274983 52.75,17.9200024 52.75,17.44 C52.75,16.849997 52.8699988,16.3450021 53.11,15.925 C53.3500012,15.5049979 53.6649981,15.1600013 54.055,14.89 C54.445002,14.6199987 54.8849976,14.4225006 55.375,14.2975 C55.8650025,14.1724994 56.3599975,14.11 56.86,14.11 C57.460003,14.11 58.0724969,14.2199989 58.6975,14.44 C59.3225031,14.6600011 59.8699977,14.9849978 60.34,15.415 L58.705,17.14 Z M73.015,17.65 C73.015,18.2700031 72.9000012,18.7924979 72.67,19.2175 C72.4399989,19.6425021 72.130002,19.9849987 71.74,20.245 C71.3499981,20.5050013 70.9000026,20.6949994 70.39,20.815 C69.8799975,20.9350006 69.3500028,20.995 68.8,20.995 L67.525,20.995 L67.525,25 L64.96,25 L64.96,14.38 L68.86,14.38 C69.4400029,14.38 69.9824975,14.4374994 70.4875,14.5525 C70.9925025,14.6675006 71.4324981,14.8524987 71.8075,15.1075 C72.1825019,15.3625013 72.4774989,15.6974979 72.6925,16.1125 C72.9075011,16.5275021 73.015,17.0399969 73.015,17.65 Z M70.45,17.665 C70.45,17.4149987 70.4000005,17.2100008 70.3,17.05 C70.1999995,16.8899992 70.0650008,16.7650005 69.895,16.675 C69.7249991,16.5849995 69.5325011,16.5250001 69.3175,16.495 C69.1024989,16.4649998 68.8800011,16.45 68.65,16.45 L67.525,16.45 L67.525,18.955 L68.605,18.955 C68.8450012,18.955 69.0749989,18.9350002 69.295,18.895 C69.5150011,18.8549998 69.7124991,18.7850005 69.8875,18.685 C70.0625009,18.5849995 70.1999995,18.4525008 70.3,18.2875 C70.4000005,18.1224992 70.45,17.9150012 70.45,17.665 Z M83.86,25 L83.035,22.915 L78.925,22.915 L78.145,25 L75.355,25 L79.81,14.38 L82.3,14.38 L86.71,25 L83.86,25 Z M81.01,17.215 L79.66,20.86 L82.33,20.86 L81.01,17.215 Z M99.67,23.53 C99.1999977,24.0700027 98.6200035,24.4974984 97.93,24.8125 C97.2399966,25.1275016 96.4450045,25.285 95.545,25.285 C94.7249959,25.285 93.9675035,25.1500013 93.2725,24.88 C92.5774965,24.6099987 91.9750026,24.2275025 91.465,23.7325 C90.9549975,23.2374975 90.5550015,22.6450034 90.265,21.955 C89.9749986,21.2649965 89.83,20.5050041 89.83,19.675 C89.83,18.8249957 89.9774985,18.0550035 90.2725,17.365 C90.5675015,16.6749966 90.9749974,16.0875024 91.495,15.6025 C92.0150026,15.1174976 92.6249965,14.7450013 93.325,14.485 C94.0250035,14.2249987 94.779996,14.095 95.59,14.095 C96.3400038,14.095 97.0774964,14.2274987 97.8025,14.4925 C98.5275036,14.7575013 99.1149978,15.1449975 99.565,15.655 L97.825,17.395 C97.5849988,17.0649983 97.270002,16.8200008 96.88,16.66 C96.4899981,16.4999992 96.0900021,16.42 95.68,16.42 C95.2299978,16.42 94.8175019,16.5024992 94.4425,16.6675 C94.0674981,16.8325008 93.7450014,17.0599986 93.475,17.35 C93.2049987,17.6400014 92.9950008,17.982498 92.845,18.3775 C92.6949993,18.772502 92.62,19.2049977 92.62,19.675 C92.62,20.1550024 92.6949993,20.594998 92.845,20.995 C92.9950008,21.395002 93.2024987,21.7374986 93.4675,22.0225 C93.7325013,22.3075014 94.0499982,22.5299992 94.42,22.69 C94.7900019,22.8500008 95.1949978,22.93 95.635,22.93 C96.1450026,22.93 96.5899981,22.830001 96.97,22.63 C97.3500019,22.429999 97.6549989,22.1700016 97.885,21.85 L99.67,23.53 Z M103.765,25 L103.765,14.38 L110.905,14.38 L110.905,16.555 L106.24,16.555 L106.24,18.55 L110.65,18.55 L110.65,20.605 L106.24,20.605 L106.24,22.81 L111.175,22.81 L111.175,25 L103.765,25 Z M120.415,16.57 L120.415,25 L117.85,25 L117.85,16.57 L114.85,16.57 L114.85,14.38 L123.415,14.38 L123.415,16.57 L120.415,16.57 Z M127.585,25 L127.585,14.38 L130.165,14.38 L130.165,25 L127.585,25 Z M144.985,25 L145.045,17.485 L145,17.485 L142.24,25 L140.44,25 L137.755,17.485 L137.71,17.485 L137.77,25 L135.355,25 L135.355,14.38 L139,14.38 L141.415,21.19 L141.475,21.19 L143.785,14.38 L147.49,14.38 L147.49,25 L144.985,25 Z M152.68,25 L152.68,14.38 L159.82,14.38 L159.82,16.555 L155.155,16.555 L155.155,18.55 L159.565,18.55 L159.565,20.605 L155.155,20.605 L155.155,22.81 L160.09,22.81 L160.09,25 L152.68,25 Z M8,20 L32,8 L32,20 L8,32 L8,20 Z" id="path-1"></path>
    </defs>
    <g id="Brand/Logo/logo-04" stroke="none" stroke-width="1" fill="none" fill-rule="evenodd">
        <rect id="#" x="0" y="0" width="175" height="40"></rect>
        <mask id="mask-2" fill="white">
            <use xlink:href="#path-1"></use>
        </mask>
        <use id="Combined-Shape" fill="#FFFFFF" xlink:href="#path-1"></use>
        <g id="Brand/Color/White" mask="url(#mask-2)" fill="#FFFFFF">
            <rect id="Color" x="0" y="0" width="175" height="40"></rect>
        </g>
    </g>
</svg>
